X:85
T:Untitled Waltz. Le4.085
B:L.Leadley MS#4 c1850
Z:Village Music Project, 2016 Steve Mansfield
M:3/4
L:1/4
Q:3/4=60
K:D
A/A/ | Afe | d2A | Afe | d2f |agf | e2A | gfe | d3 H :|
F | Fdc | B2F | Fdc | B>cd/e/ |f>gf/^e/ | f>ed/c/ | Bdc | B2 !segno! :|

